icons/svg/seamark/notice_information_secondarywaterwaycrossing.svg

<?xml version="1.0" encoding="UTF-8" standalone="no"?>
<svg
   xmlns:dc="http://purl.org/dc/elements/1.1/"
   xmlns:cc="http://creativecommons.org/ns#"
   xmlns:rdf="http://www.w3.org/1999/02/22-rdf-syntax-ns#"
   xmlns:svg="http://www.w3.org/2000/svg"
   xmlns="http://www.w3.org/2000/svg"
   xmlns:sodipodi="http://sodipodi.sourceforge.net/DTD/sodipodi-0.dtd"
   xmlns:inkscape="http://www.inkscape.org/namespaces/inkscape"
   width="320"
   height="320"
   id="svg2"
   version="1.1"
   inkscape:version="0.48.4 r9939"
   sodipodi:docname="notice_information_turningarea.svg">
  <defs
     id="defs13">
    <inkscape:path-effect
       effect="gears"
       id="path-effect3774"
       is_visible="true"
       teeth="6"
       phi="-1.2" />
    <inkscape:path-effect
       effect="bend_path"
       id="path-effect3772"
       is_visible="false"
       bendpath="m 95.790098,316.51174 c 144.429032,-206.42506 223.313032,-11.7428 339.548092,0"
       prop_scale="1.19"
       scale_y_rel="false"
       vertical="false"
       bendpath-nodetypes="cc" />
  </defs>
  <sodipodi:namedview
     pagecolor="#ffffff"
     bordercolor="#666666"
     borderopacity="1"
     objecttolerance="10"
     gridtolerance="10"
     guidetolerance="10"
     inkscape:pageopacity="0"
     inkscape:pageshadow="2"
     inkscape:window-width="1920"
     inkscape:window-height="1004"
     id="namedview11"
     showgrid="true"
     inkscape:zoom="1.4142136"
     inkscape:cx="151.80244"
     inkscape:cy="164.95388"
     inkscape:window-x="1680"
     inkscape:window-y="0"
     inkscape:window-maximized="1"
     inkscape:current-layer="svg2"
     inkscape:snap-bbox="true"
     inkscape:object-nodes="true"
     inkscape:snap-midpoints="true"
     inkscape:snap-grids="true"
     inkscape:snap-bbox-edge-midpoints="true"
     showguides="true"
     inkscape:guide-bbox="true"
     inkscape:snap-global="false">
    <inkscape:grid
       type="xygrid"
       id="grid2990"
       empspacing="5"
       visible="true"
       enabled="true"
       snapvisiblegridlinesonly="true"
       spacingx="10px"
       spacingy="10px"
       dotted="false" />
    <sodipodi:guide
       orientation="1,0"
       position="55.202458,260.58927"
       id="guide3872" />
    <sodipodi:guide
       orientation="1,0"
       position="265.17816,340"
       id="guide3874" />
    <sodipodi:guide
       orientation="0,1"
       position="317.80107,264.96094"
       id="guide3876" />
    <sodipodi:guide
       orientation="0,1"
       position="325.098,54.759006"
       id="guide3878" />
  </sodipodi:namedview>
  <metadata
     id="metadata2975">image/svg+xmlen<rdf:RDF>
  <cc:Work
     rdf:about="">
    <dc:format>image/svg+xml</dc:format>
    <dc:type
       rdf:resource="http://purl.org/dc/dcmitype/StillImage" />
    <dc:title></dc:title>
  </cc:Work>
</rdf:RDF>
</metadata>
  <path
     style="font-size:medium;font-style:normal;font-variant:normal;font-weight:normal;font-stretch:normal;text-indent:0;text-align:start;text-decoration:none;line-height:normal;letter-spacing:normal;word-spacing:normal;text-transform:none;direction:ltr;block-progression:tb;writing-mode:lr-tb;text-anchor:start;baseline-shift:baseline;color:#000000;fill:#fefefe;fill-opacity:1;stroke:none;stroke-width:15.17103481000000009;marker:none;visibility:visible;display:inline;overflow:visible;enable-background:accumulate;font-family:Sans;-inkscape-font-specification:Sans;fill-rule:nonzero"
     d="m 143.21875,80 0,16.8125 0,126.375 0,16.8125 33.59375,0 0,-16.8125 0,-126.375 0,-16.8125 -33.59375,0 z"
     id="path4072"
     inkscape:connector-curvature="0" />
  <path
     style="font-size:medium;font-style:normal;font-variant:normal;font-weight:normal;font-stretch:normal;text-indent:0;text-align:start;text-decoration:none;line-height:normal;letter-spacing:normal;word-spacing:normal;text-transform:none;direction:ltr;block-progression:tb;writing-mode:lr-tb;text-anchor:start;baseline-shift:baseline;color:#000000;fill:#fefefe;fill-opacity:1;stroke:none;stroke-width:15.17103481000000009;marker:none;visibility:visible;display:inline;overflow:visible;enable-background:accumulate;font-family:Sans;-inkscape-font-specification:Sans;fill-rule:nonzero"
     d="m 80.34375,149.5 0,21 10.5,0 138.3125,0 10.5,0 0,-21 -10.5,0 -138.3125,0 -10.5,0 z"
     id="path4072-8"
     inkscape:connector-curvature="0" />
</svg>

<svg width="320" height="320" viewBox="0 0 320 320" fill="none" xmlns="http://www.w3.org/2000/svg">
<path d="M143.219 80V96.8125V223.188V240H176.812V223.188V96.8125V80H143.219Z" fill="#FEFEFE"/>
<path d="M80.3438 149.5V170.5H90.8438H229.156H239.656V149.5H229.156H90.8438H80.3438Z" fill="#FEFEFE"/>
</svg>
